;FLAVOR:Marlin
;TIME:10380
;Filament used: 23.3866m
;Layer height: 0.2
;MINX:-69.191
;MINY:-45.575
;MINZ:0.21
;MAXX:69.265
;MAXY:45.731
;MAXZ:43.01
;TARGET_MACHINE.NAME:Unknown
;Generated with Cura_SteamEngine 5.7.1
M82 ;absolute extrusion mode
G21 ; millimeter units
G90 ; absolute coordinates
M82 ; E absolute
M140 S35
M104 S220
M190 S35
M109 S220
G28 ; home axis
M420 S1 ; enable mesh leveling
; Lower nozzle and move to start position
G1 Z150
G1 X-130 Y0 Z0.4 F3000
; Extrude about 40 mm by printing a 90 degree arc
G3 X0 Y-130 I130 Z0.3 E40 F2700
; Retract and move nozzle up
G92 E0
G1 E-1.5 F1800
G0 Z0.5
G1 E0 F300

G92 E0
G92 E0
G1 F2400 E-3
;LAYER_COUNT:215
;LAYER:0
M107
G0 F3000 X-68.926 Y-43.016 Z0.21
;TYPE:SKIRT
G1 F2400 E0
G1 F1500 X-69.126 Y-43.016 E0.00908
G1 X-69.126 Y-44.51 E0.07691
G1 X69.25 Y-44.51 E6.35919
G1 X69.233 Y-44.392 E6.3646
G1 X69.255 Y-44.269 E6.37028
G1 X69.264 Y-44.26 E6.37085
G1 X69.233 Y-44.046 E6.38067
G1 X69.255 Y-43.923 E6.38634
G1 X69.265 Y-43.914 E6.38695
G1 X69.134 Y-43.016 E6.42815
G1 X68.982 Y-43.016 E6.43506
G1 X68.986 Y-43.042 E6.43625
G1 X68.964 Y-43.165 E6.44192
G1 X68.955 Y-43.174 E6.4425
G1 X68.986 Y-43.388 E6.45232
G1 X68.964 Y-43.511 E6.45799
G1 X68.955 Y-43.52 E6.45857
G1 X68.986 Y-43.734 E6.46838
G1 X68.964 Y-43.857 E6.47406
G1 X68.955 Y-43.866 E6.47464
G1 X68.986 Y-44.081 E6.4845
G1 X68.964 Y-44.204 E6.49017
G1 X68.874 Y-44.291 E6.49585
G1 X68.788 Y-44.31 E6.49985
G1 X-68.726 Y-44.31 E12.743
G1 X-68.845 Y-44.271 E12.74868
G1 X-68.926 Y-44.11 E12.75687
G1 X-68.926 Y-43.016 E12.80653
G0 F3000 X-68.526 Y-43.016
;TYPE:SUPPORT-INTERFACE
G1 F1500 X-68.526 Y-43.91 E12.84712
G1 X68.557 Y-43.91 E19.0707
G1 X68.507 Y-43.563 E19.08662
G1 X68.557 Y-43.563 E19.08889
G1 X68.507 Y-43.217 E19.10476
G1 X68.557 Y-43.217 E19.10703
G1 X68.528 Y-43.016 E19.11625
G1 X-68.526 Y-43.016 E25.33851
G0 F3000 X-68.078 Y-43.462
G1 F1222 X-0.018 Y-43.462 E29.1314
G1 F1224.5 X68.042 Y-43.462 E32.91657
G1 F2400 E29.91657
;MESH:base_porta_injector v2.stl
G0 F3000 X67.041 Y-41.515
G0 X65.545 Y-38.919
G0 X18.32 Y43.071
G0 X18.556 Y43.664
;TYPE:WALL-OUTER
G1 F2400 E32.91657
G1 F1500 X68.08 Y-42.115 E38.08791
G1 X-68.124 Y-42.116 E45.19914
G1 X-68.124 Y43.664 E49.67772
G1 X18.556 Y43.664 E54.20329
G0 F3000 X18.655 Y43.491
G0 X18.325 Y43.264
;TYPE:WALL-INNER
G1 F1500 X67.388 Y-41.715 E59.32643
G1 X-67.724 Y-41.716 E66.38064
G1 X-67.724 Y43.264 E70.81746
G1 X18.325 Y43.264 E75.31008
G0 F3000 X18.116 Y42.904
;TYPE:SKIN
G1 F1500 X66.761 Y-41.352 E79.72707
G1 X-67.364 Y-41.355 E85.81636
G1 X-67.364 Y42.904 E89.64172
G1 X18.116 Y42.904 E93.52252
G1 F2400 E90.52252
G0 F3000 X18.116 Y43.164
G0 X30.907 Y21.078
G0 X66.574 Y-40.509
G0 X66.177 Y-40.738
G1 F2400 E93.52252
G1 F1500 X65.763 Y-41.151 E93.54907
G0 F3000 X65.197 Y-41.151
G1 F1500 X65.97 Y-40.379 E93.59867
G0 F3000 X65.762 Y-40.021
G1 F1500 X64.632 Y-41.151 E93.67122
G0 F3000 X64.066 Y-41.151
G1 F1500 X65.556 Y-39.662 E93.76686
G0 F3000 X65.349 Y-39.303
G1 F1500 X63.5 Y-41.151 E93.88554
G0 F3000 X62.935 Y-41.151
G1 F1500 X65.142 Y-38.945 E94.02721
G0 F3000 X64.934 Y-38.586
G1 F1500 X62.369 Y-41.151 E94.1919
G0 F3000 X61.803 Y-41.151
G1 F1500 X64.727 Y-38.228 E94.3796
G0 F3000 X64.52 Y-37.869
G1 F1500 X61.238 Y-41.151 E94.59032
G0 F3000 X60.672 Y-41.151
G1 F1500 X64.313 Y-37.51 E94.8241
G0 F3000 X64.106 Y-37.151
G1 F1500 X60.106 Y-41.151 E95.08092
G0 F3000 X59.541 Y-41.151
G1 F1500 X63.899 Y-36.793 E95.36072
G0 F3000 X63.692 Y-36.434
G1 F1500 X58.975 Y-41.151 E95.66358
G0 F3000 X58.409 Y-41.151
G1 F1500 X63.485 Y-36.076 E95.98946
G0 F3000 X63.278 Y-35.717
G1 F1500 X57.843 Y-41.151 E96.33838
G0 F3000 X57.278 Y-41.151
G1 F1500 X63.071 Y-35.358 E96.71032
G0 F3000 X62.864 Y-35
G1 F1500 X56.712 Y-41.151 E97.10528
G0 F3000 X56.146 Y-41.151
G1 F1500 X62.657 Y-34.641 E97.52329
G0 F3000 X62.45 Y-34.283
G1 F1500 X55.581 Y-41.151 E97.96429
G0 F3000 X55.015 Y-41.151
G1 F1500 X62.242 Y-33.924 E98.4283
G0 F3000 X62.036 Y-33.565
G1 F1500 X54.449 Y-41.151 E98.91539
G0 F3000 X53.884 Y-41.151
G1 F1500 X61.829 Y-33.206 E99.4255
G0 F3000 X61.622 Y-32.848
G1 F1500 X53.318 Y-41.151 E99.95863
G0 F3000 X52.752 Y-41.151
G1 F1500 X61.414 Y-32.489 E100.51478
G0 F3000 X61.207 Y-32.131
G1 F1500 X52.187 Y-41.151 E101.09391
G0 F3000 X51.621 Y-41.151
G1 F1500 X61.001 Y-31.772 E101.69613
G0 F3000 X60.794 Y-31.413
G1 F1500 X51.055 Y-41.151 E102.32139
G0 F3000 X50.49 Y-41.151
G1 F1500 X60.586 Y-31.055 E102.96961
G0 F3000 X60.379 Y-30.696
G1 F1500 X49.924 Y-41.151 E103.64088
G0 F3000 X49.358 Y-41.151
G1 F1500 X60.172 Y-30.338 E104.33516
G0 F3000 X59.965 Y-29.979
G1 F1500 X48.792 Y-41.151 E105.0525
G0 F3000 X48.227 Y-41.151
G1 F1500 X59.758 Y-29.62 E105.79285
G0 F3000 X59.551 Y-29.261
G1 F1500 X47.661 Y-41.151 E106.55625
G0 F3000 X47.095 Y-41.151
G1 F1500 X59.344 Y-28.903 E107.34267
G0 F3000 X59.137 Y-28.544
G1 F1500 X46.53 Y-41.151 E108.15211
G0 F3000 X45.964 Y-41.151
G1 F1500 X58.93 Y-28.186 E108.98457
G0 F3000 X58.722 Y-27.827
G1 F1500 X45.398 Y-41.151 E109.84004
G0 F3000 X44.833 Y-41.151
G1 F1500 X58.516 Y-27.468 E110.71856
G0 F3000 X58.309 Y-27.11
G1 F1500 X44.267 Y-41.151 E111.6201
G0 F3000 X43.701 Y-41.151
G1 F1500 X58.102 Y-26.751 E112.54469
G0 F3000 X57.894 Y-26.393
G1 F1500 X43.136 Y-41.151 E113.49224
G0 F3000 X42.57 Y-41.151
G1 F1500 X57.687 Y-26.034 E114.46283
G0 F3000 X57.481 Y-25.675
G1 F1500 X42.004 Y-41.151 E115.45651
G0 F3000 X41.439 Y-41.151
G1 F1500 X57.274 Y-25.317 E116.47317
G0 F3000 X57.066 Y-24.958
G1 F1500 X40.873 Y-41.151 E117.51284
G0 F3000 X40.307 Y-41.151
G1 F1500 X56.859 Y-24.6 E118.57554
G0 F3000 X56.652 Y-24.241
G1 F1500 X39.742 Y-41.151 E119.66125
G0 F3000 X39.175 Y-41.152
G1 F1500 X56.445 Y-23.883 E120.77005
G0 F3000 X56.238 Y-23.523
G1 F1500 X38.609 Y-41.152 E121.90193
G0 F3000 X38.044 Y-41.152
G1 F1500 X56.031 Y-23.165 E123.05679
G0 F3000 X55.824 Y-22.806
G1 F1500 X37.478 Y-41.152 E124.2347
G0 F3000 X36.912 Y-41.152
G1 F1500 X55.617 Y-22.448 E125.43563
G0 F3000 X55.41 Y-22.089
G1 F1500 X36.347 Y-41.152 E126.65958
G0 F3000 X35.781 Y-41.152
G1 F1500 X55.203 Y-21.73 E127.90658
G0 F3000 X54.996 Y-21.372
G1 F1500 X35.215 Y-41.152 E129.17659
G0 F3000 X34.65 Y-41.152
G1 F1500 X54.789 Y-21.013 E130.46963
G0 F3000 X54.582 Y-20.655
G1 F1500 X34.084 Y-41.152 E131.78568
G0 F3000 X33.518 Y-41.152
G1 F1500 X54.374 Y-20.296 E133.12474
G0 F3000 X54.167 Y-19.938
G1 F1500 X32.953 Y-41.152 E134.4868
G0 F3000 X32.387 Y-41.152
G1 F1500 X53.961 Y-19.578 E135.87197
G0 F3000 X53.754 Y-19.22
G1 F1500 X31.821 Y-41.152 E137.28015
G0 F3000 X31.256 Y-41.152
G1 F1500 X53.546 Y-18.861 E138.71132
G0 F3000 X53.339 Y-18.503
G1 F1500 X30.69 Y-41.152 E140.16551
G0 F3000 X30.124 Y-41.152
G1 F1500 X53.132 Y-18.144 E141.64275
G0 F3000 X52.926 Y-17.785
G1 F1500 X29.558 Y-41.152 E143.14307
G0 F3000 X28.993 Y-41.152
G1 F1500 X52.718 Y-17.427 E144.66634
G0 F3000 X52.511 Y-17.068
G1 F1500 X28.427 Y-41.152 E146.21266
G0 F3000 X27.861 Y-41.152
G1 F1500 X52.304 Y-16.71 E147.78201
G0 F3000 X52.097 Y-16.351
G1 F1500 X27.296 Y-41.152 E149.37436
G0 F3000 X26.73 Y-41.152
G1 F1500 X51.89 Y-15.993 E150.98974
G0 F3000 X51.683 Y-15.633
G1 F1500 X26.164 Y-41.152 E152.6282
G0 F3000 X25.599 Y-41.152
G1 F1500 X51.476 Y-15.275 E154.28964
G0 F3000 X51.269 Y-14.916
G1 F1500 X25.033 Y-41.152 E155.97413
G0 F3000 X24.467 Y-41.152
G1 F1500 X51.062 Y-14.558 E157.68165
G0 F3000 X50.854 Y-14.199
G1 F1500 X23.902 Y-41.152 E159.41214
G0 F3000 X23.336 Y-41.152
G1 F1500 X50.647 Y-13.841 E161.16566
G0 F3000 X50.441 Y-13.482
G1 F1500 X22.77 Y-41.152 E162.94225
G0 F3000 X22.205 Y-41.152
G1 F1500 X50.234 Y-13.123 E164.74187
G0 F3000 X50.026 Y-12.765
G1 F1500 X21.639 Y-41.152 E166.56446
G0 F3000 X21.073 Y-41.152
G1 F1500 X49.819 Y-12.406 E168.41011
G0 F3000 X49.612 Y-12.048
G1 F1500 X20.508 Y-41.152 E170.27875
G0 F3000 X19.942 Y-41.152
G1 F1500 X49.406 Y-11.688 E172.1705
G0 F3000 X49.198 Y-11.33
G1 F1500 X19.376 Y-41.152 E174.08523
G0 F3000 X18.81 Y-41.152
G1 F1500 X48.991 Y-10.971 E176.02301
G0 F3000 X48.784 Y-10.613
G1 F1500 X18.245 Y-41.152 E177.98378
G0 F3000 X17.679 Y-41.152
G1 F1500 X48.577 Y-10.254 E179.9676
G0 F3000 X48.37 Y-9.896
G1 F1500 X17.113 Y-41.152 E181.97444
G0 F3000 X16.548 Y-41.152
G1 F1500 X48.163 Y-9.537 E184.00429
G0 F3000 X47.956 Y-9.178
G1 F1500 X15.982 Y-41.152 E186.0572
G0 F3000 X15.416 Y-41.152
G1 F1500 X47.749 Y-8.82 E188.13312
G0 F3000 X47.542 Y-8.461
G1 F1500 X14.851 Y-41.152 E190.23206
G0 F3000 X14.285 Y-41.152
G1 F1500 X47.334 Y-8.103 E192.35398
G0 F3000 X47.128 Y-7.744
G1 F1500 X13.719 Y-41.152 E194.49899
G0 F3000 X13.154 Y-41.152
G1 F1500 X46.921 Y-7.385 E196.66701
G0 F3000 X46.714 Y-7.027
G1 F1500 X12.587 Y-41.153 E198.85812
G0 F3000 X12.022 Y-41.153
G1 F1500 X46.506 Y-6.668 E201.07221
G0 F3000 X46.299 Y-6.31
G1 F1500 X11.456 Y-41.153 E203.30932
G0 F3000 X10.89 Y-41.153
G1 F1500 X46.092 Y-5.951 E205.56948
G0 F3000 X45.886 Y-5.592
G1 F1500 X10.324 Y-41.153 E207.85272
G0 F3000 X9.759 Y-41.153
G1 F1500 X45.678 Y-5.233 E210.15895
G0 F3000 X45.471 Y-4.875
G1 F1500 X9.193 Y-41.153 E212.48819
G0 F3000 X8.627 Y-41.153
G1 F1500 X45.264 Y-4.516 E214.84048
G0 F3000 X45.057 Y-4.158
G1 F1500 X8.062 Y-41.153 E217.21576
G0 F3000 X7.496 Y-41.153
G1 F1500 X44.85 Y-3.799 E219.61409
G0 F3000 X44.643 Y-3.44
G1 F1500 X6.93 Y-41.153 E222.03547
G0 F3000 X6.365 Y-41.153
G1 F1500 X44.436 Y-3.082 E224.47984
G0 F3000 X44.229 Y-2.723
G1 F1500 X5.799 Y-41.153 E226.94725
G0 F3000 X5.233 Y-41.153
G1 F1500 X44.022 Y-2.365 E229.43768
G0 F3000 X43.814 Y-2.006
G1 F1500 X4.668 Y-41.153 E231.9511
G0 F3000 X4.102 Y-41.153
G1 F1500 X43.608 Y-1.647 E234.4876
G0 F3000 X43.401 Y-1.288
G1 F1500 X3.536 Y-41.153 E237.04715
G0 F3000 X2.971 Y-41.153
G1 F1500 X43.194 Y-.93 E239.62968
G0 F3000 X42.986 Y-.571
G1 F1500 X2.405 Y-41.153 E242.23523
G0 F3000 X1.839 Y-41.153
G1 F1500 X42.779 Y-.213 E244.8638
G0 F3000 X42.572 Y0.146
G1 F1500 X1.273 Y-41.153 E247.51542
G0 F3000 X0.708 Y-41.153
G1 F1500 X42.366 Y0.505 E250.19009
G0 F3000 X42.158 Y0.863
G1 F1500 X0.142 Y-41.153 E252.88775
G0 F3000 X-.424 Y-41.153
G1 F1500 X41.951 Y1.222 E255.60845
G0 F3000 X41.744 Y1.58
G1 F1500 X-.989 Y-41.153 E258.35214
G0 F3000 X-1.555 Y-41.153
G1 F1500 X41.537 Y1.939 E261.11888
G0 F3000 X41.33 Y2.298
G1 F1500 X-2.121 Y-41.153 E263.90867
G0 F3000 X-2.686 Y-41.153
G1 F1500 X41.123 Y2.657 E266.72148
G0 F3000 X40.916 Y3.015
G1 F1500 X-3.252 Y-41.153 E269.5573
G0 F3000 X-3.818 Y-41.153
G1 F1500 X40.709 Y3.374 E272.41618
G0 F3000 X40.502 Y3.732
G1 F1500 X-4.383 Y-41.153 E275.29804
G0 F3000 X-4.949 Y-41.153
G1 F1500 X40.294 Y4.091 E278.20291
G0 F3000 X40.088 Y4.45
G1 F1500 X-5.515 Y-41.153 E281.13087
G0 F3000 X-6.08 Y-41.153
G1 F1500 X39.881 Y4.808 E284.08182
G0 F3000 X39.674 Y5.167
G1 F1500 X-6.646 Y-41.153 E287.05581
G0 F3000 X-7.212 Y-41.153
G1 F1500 X39.466 Y5.525 E290.05279
G0 F3000 X39.259 Y5.884
G1 F1500 X-7.777 Y-41.153 E293.07279
G0 F3000 X-8.343 Y-41.153
G1 F1500 X39.053 Y6.243 E296.11587
G0 F3000 X38.846 Y6.602
G1 F1500 X-8.909 Y-41.153 E299.182
G0 F3000 X-9.475 Y-41.153
G1 F1500 X38.638 Y6.96 E302.27112
G0 F3000 X38.431 Y7.319
G1 F1500 X-10.04 Y-41.153 E305.38325
G0 F3000 X-10.606 Y-41.153
G1 F1500 X38.224 Y7.677 E308.5184
G0 F3000 X38.017 Y8.036
G1 F1500 X-11.172 Y-41.153 E311.6766
G0 F3000 X-11.737 Y-41.153
G1 F1500 X37.81 Y8.395 E314.85782
G0 F3000 X37.603 Y8.753
G1 F1500 X-12.303 Y-41.153 E318.06205
G0 F3000 X-12.869 Y-41.153
G1 F1500 X37.396 Y9.112 E321.28934
G0 F3000 X37.189 Y9.47
G1 F1500 X-13.434 Y-41.153 E324.53961
G0 F3000 X-14.001 Y-41.154
G1 F1500 X36.982 Y9.829 E327.81299
G0 F3000 X36.775 Y10.188
G1 F1500 X-14.566 Y-41.154 E331.1094
G0 F3000 X-15.132 Y-41.154
G1 F1500 X36.568 Y10.546 E334.42882
G0 F3000 X36.361 Y10.905
G1 F1500 X-15.698 Y-41.154 E337.77129
G0 F3000 X-16.263 Y-41.154
G1 F1500 X36.154 Y11.264 E341.13677
G0 F3000 X35.946 Y11.622
G1 F1500 X-16.829 Y-41.154 E344.52525
G0 F3000 X-17.395 Y-41.154
G1 F1500 X35.739 Y11.981 E347.93677
G0 F3000 X35.533 Y12.34
G1 F1500 X-17.961 Y-41.154 E351.37137
G0 F3000 X-18.526 Y-41.154
G1 F1500 X35.326 Y12.698 E354.82896
G0 F3000 X35.118 Y13.057
G1 F1500 X-19.092 Y-41.154 E358.30957
G0 F3000 X-19.658 Y-41.154
G1 F1500 X34.911 Y13.415 E361.8132
G0 F3000 X34.704 Y13.774
G1 F1500 X-20.223 Y-41.154 E365.33984
G0 F3000 X-20.789 Y-41.154
G1 F1500 X34.498 Y14.133 E368.88956
G0 F3000 X34.29 Y14.491
G1 F1500 X-21.355 Y-41.154 E372.46227
G0 F3000 X-21.92 Y-41.154
G1 F1500 X34.083 Y14.85 E376.058
G0 F3000 X33.876 Y15.208
G1 F1500 X-22.486 Y-41.154 E379.67675
G0 F3000 X-23.052 Y-41.154
G1 F1500 X33.669 Y15.567 E383.31854
G0 F3000 X33.462 Y15.925
G1 F1500 X-23.617 Y-41.154 E386.98332
G0 F3000 X-24.183 Y-41.154
G1 F1500 X33.255 Y16.285 E390.67119
G0 F3000 X33.048 Y16.643
G1 F1500 X-24.749 Y-41.154 E394.38207
G0 F3000 X-25.314 Y-41.154
G1 F1500 X32.841 Y17.002 E398.11597
G0 F3000 X32.634 Y17.36
G1 F1500 X-25.88 Y-41.154 E401.87288
G0 F3000 X-26.446 Y-41.154
G1 F1500 X32.427 Y17.719 E405.65285
G0 F3000 X32.219 Y18.077
G1 F1500 X-27.011 Y-41.154 E409.45577
G0 F3000 X-27.577 Y-41.154
G1 F1500 X32.013 Y18.436 E413.28177
G0 F3000 X31.806 Y18.795
G1 F1500 X-28.143 Y-41.154 E417.13082
G0 F3000 X-28.709 Y-41.154
G1 F1500 X31.598 Y19.153 E421.00285
G0 F3000 X31.391 Y19.512
G1 F1500 X-29.274 Y-41.154 E424.89791
G0 F3000 X-29.84 Y-41.154
G1 F1500 X31.184 Y19.87 E428.81598
G0 F3000 X30.978 Y20.23
G1 F1500 X-30.406 Y-41.154 E432.75716
G0 F3000 X-30.971 Y-41.154
G1 F1500 X30.77 Y20.588 E436.7213
G0 F3000 X30.563 Y20.947
G1 F1500 X-31.537 Y-41.154 E440.70849
G0 F3000 X-32.103 Y-41.154
G1 F1500 X30.356 Y21.305 E444.7187
G0 F3000 X30.149 Y21.664
G1 F1500 X-32.668 Y-41.154 E448.75192
G0 F3000 X-33.234 Y-41.154
G1 F1500 X29.942 Y22.022 E452.80816
G0 F3000 X29.735 Y22.381
G1 F1500 X-33.8 Y-41.154 E456.88745
G0 F3000 X-34.365 Y-41.154
G1 F1500 X29.528 Y22.74 E460.98976
G0 F3000 X29.321 Y23.098
G1 F1500 X-34.931 Y-41.154 E465.11509
G0 F3000 X-35.497 Y-41.154
G1 F1500 X29.114 Y23.457 E469.26346
G0 F3000 X28.907 Y23.815
G1 F1500 X-36.062 Y-41.154 E473.43482
G0 F3000 X-36.628 Y-41.154
G1 F1500 X28.7 Y24.175 E477.62927
G0 F3000 X28.493 Y24.533
G1 F1500 X-37.194 Y-41.154 E481.84673
G0 F3000 X-37.76 Y-41.154
G1 F1500 X28.286 Y24.892 E486.08724
G0 F3000 X28.079 Y25.25
G1 F1500 X-38.325 Y-41.154 E490.35074
G0 F3000 X-38.891 Y-41.154
G1 F1500 X27.871 Y25.609 E494.63725
G0 F3000 X27.664 Y25.967
G1 F1500 X-39.457 Y-41.154 E498.94678
G0 F3000 X-40.022 Y-41.154
G1 F1500 X27.458 Y26.326 E503.27936
G0 F3000 X27.25 Y26.685
G1 F1500 X-40.589 Y-41.154 E507.63499
G0 F3000 X-41.154 Y-41.154
G1 F1500 X27.043 Y27.043 E512.01361
G0 F3000 X26.836 Y27.402
G1 F1500 X-41.72 Y-41.154 E516.41528
G0 F3000 X-42.286 Y-41.154
G1 F1500 X26.629 Y27.76 E520.83996
G0 F3000 X26.422 Y28.12
G1 F1500 X-42.851 Y-41.154 E525.28769
G0 F3000 X-43.417 Y-41.154
G1 F1500 X26.215 Y28.478 E529.75845
G0 F3000 X26.008 Y28.837
G1 F1500 X-43.983 Y-41.154 E534.25225
G0 F3000 X-44.548 Y-41.154
G1 F1500 X25.801 Y29.195 E538.76903
G0 F3000 X25.594 Y29.554
G1 F1500 X-45.114 Y-41.154 E543.30887
G0 F3000 X-45.68 Y-41.154
G1 F1500 X25.387 Y29.912 E547.87172
G0 F3000 X25.18 Y30.271
G1 F1500 X-46.245 Y-41.154 E552.4576
G0 F3000 X-46.811 Y-41.154
G1 F1500 X24.973 Y30.63 E557.06652
G0 F3000 X24.766 Y30.988
G1 F1500 X-47.377 Y-41.154 E561.69846
G0 F3000 X-47.943 Y-41.154
G1 F1500 X24.559 Y31.347 E566.35345
G0 F3000 X24.351 Y31.705
G1 F1500 X-48.508 Y-41.154 E571.03139
G0 F3000 X-49.074 Y-41.154
G1 F1500 X24.144 Y32.064 E575.73238
G0 F3000 X23.938 Y32.423
G1 F1500 X-49.64 Y-41.154 E580.45645
G0 F3000 X-50.205 Y-41.154
G1 F1500 X23.731 Y32.781 E585.20351
G0 F3000 X23.523 Y33.14
G1 F1500 X-50.771 Y-41.154 E589.97359
G0 F3000 X-51.337 Y-41.154
G1 F1500 X23.316 Y33.498 E594.76669
G0 F3000 X23.109 Y33.857
G1 F1500 X-51.902 Y-41.154 E599.5828
G0 F3000 X-52.468 Y-41.154
G1 F1500 X22.902 Y34.216 E604.42196
G0 F3000 X22.695 Y34.575
G1 F1500 X-53.034 Y-41.154 E609.28417
G0 F3000 X-53.599 Y-41.154
G1 F1500 X22.488 Y34.933 E614.16937
G0 F3000 X22.281 Y35.292
G1 F1500 X-54.165 Y-41.154 E619.07762
G0 F3000 X-54.731 Y-41.154
G1 F1500 X22.074 Y35.65 E624.00888
G0 F3000 X21.867 Y36.009
